svgs/light/guitars.svg

<svg xmlns="http://www.w3.org/2000/svg" viewBox="0 0 512 512"><!--! Font Awesome Pro 6.3.0 by @fontawesome - https://fontawesome.com License - https://fontawesome.com/license (Commercial License) Copyright 2023 Fonticons, Inc. --><path d="M144 180.3V133.8l24.61-40.25c2-4 3.033-8.565 3.033-13.06V26.37C171.6 11.87 159.9 0 145.3 0H110.8c-14.63 0-26.5 11.91-26.5 26.41v54.09c0 4.5 1.098 8.947 3.098 12.95l24.64 40.36v46.54c-24.06 2.146-47.73 7.762-69.13 29.15c-15.38 15.38-24.62 34.1-24.62 56.62c0 11.88 2.875 23.62 8.375 34.12c8 15.62 6 35.62-4.875 48.75c-13.62 16.5-21.87 36.37-21.75 57.1c-.125 58 57.37 105 127.1 105c25.78 0 49.57-6.478 69.6-17.34c7.277-3.945 9.754-13.03 6.225-20.52c-.0469-.0977-.0938-.1953-.1387-.293C199.9 465.8 190.2 462.8 182.4 467C166.5 475.5 147.7 480 128 480c-26.88 0-51.75-8.375-70.25-23.5c-16.63-13.62-25.75-31.25-25.75-49.63c0-16.5 7.875-29.5 14.38-37.38c19.12-23 22.62-56.75 8.75-83.88C51.88 279.6 50.25 272.9 50.25 266c0-25.42 24.49-52.3 61.75-52.4L112 274.9C93.4 281.6 80 299.1 80 320c0 26.5 21.5 48 48 48c26.5 0 48-21.5 48-48c0-20.86-13.41-38.45-32.01-45.06l.0039-61.42c19.12-.0527 34.28 5.824 47.3 19.42C197.6 239.5 207.9 239.7 214.2 233.1c6.646-7.062 5.869-16.33 .5547-21.95C189.8 184.7 159.4 181.7 144 180.3zM116.3 32h23.5v48.5L128 103.3L116.3 80.5V32zM144 320c0 8.875-7.128 15.1-16 15.1S112 328.9 112 320s7.125-16 16-16S144 311.1 144 320zM400 336h-64c-8.801 0-16 7.199-16 16c0 8.799 7.199 16 16 16h64c8.799 0 16-7.201 16-16C416 343.2 408.8 336 400 336zM400 400.1h-64c-8.801 0-16.01 7.136-16.01 15.94c0 8.799 7.199 15.1 15.1 15.1h64c8.799 0 15.1-7.201 15.1-15.1C416 407.3 408.8 400.1 400 400.1zM504.6 386.9l-30.25-50.63c-7.5-20.38-11.62-29.5-2.25-49.25c5.125-10.88 7.875-22.75 7.875-34.75V221.3c0-9.719-6.273-18.78-15.73-21.04c-1.684-.4023-3.367-.5957-5.021-.5957c-7.752 0-14.88 4.248-18.5 11.25l-12 23.12c-6 11.62-12.12 19.75-24.75 22h-20V93.06c20.23-7.189 34.31-27.36 31.69-50.61C412.9 17.92 390.1 0 366.3 0c-20.75 0-38.7 14.38-43.2 34.63C315.6 68.38 305.2 115.5 303.9 121.4C301.5 132 304.8 143.1 312.5 150.9l39.5 31.5V256h-20c-12.75-3.5-18.5-14-23.12-26.88l-14.75-40.25C291.4 181.1 284 176 275.8 176c-5.25 0-10.25 2-14 5.75c-3.625 3.75-5.75 8.75-5.75 13.88v56.63c0 12.12 2.625 24 7.875 34.88c9.25 19.62 5.375 28.75-2.125 49.25L231.4 387C206 446.1 249.4 512 313.8 512h108.4C486.6 511.9 530 446.1 504.6 386.9zM335.2 128c1.369-6.324 11.72-52.97 19.16-86.46C355.6 35.94 360.5 32 366.3 32c8.83 0 16.72 6.295 17.59 14.03c.9824 8.705-4.619 14.75-10.6 16.88c-12.76 4.535-21.28 16.61-21.28 30.15V141.4L335.2 128zM470.4 453.9C459.5 470.5 441.9 479.1 422.1 480h-108.4c-19.72 0-37.26-9.449-48.12-25.93c-10.5-15.94-12.5-35.03-5.588-52.66l29.15-48.57c1.043-1.738 1.916-3.568 2.613-5.471l.6816-1.863c7.715-21.04 15-40.91 .209-72.29c-1.871-3.873-3.188-7.965-3.939-12.23c6.793 10.41 17.54 21.14 34.78 25.88C326.3 287.6 329.2 288 332 288h72c1.883 0 3.762-.166 5.615-.4961c17.33-3.09 28.71-12.07 36.23-21.05c-.709 2.328-1.588 4.613-2.629 6.82c-14.75 31.08-7.492 50.71 .1953 71.5l.9336 2.529c.6855 1.861 1.543 3.656 2.561 5.359l29.04 48.59C482.9 418.9 480.9 438 470.4 453.9z"/></svg>

<svg xmlns="http://www.w3.org/2000/svg" viewBox="0 0 512 512"><!-- Font Awesome Pro 6.0.0-alpha2 by @fontawesome - https://fontawesome.com License - https://fontawesome.com/license (Commercial License) --><path d="M144.003 180.328V133.811L168.632 93.5C170.632 89.5 171.632 85 171.632 80.5V26.375C171.632 11.875 159.88 0 145.255 0H110.755C96.128 0 84.253 11.875 84.253 26.375V80.5C84.253 85 85.378 89.5 87.378 93.5L112.003 133.809V180.348C87.947 182.494 64.275 188.109 42.876 209.5C27.501 224.875 18.251 244.5 18.251 266.125C18.251 278 21.126 289.75 26.626 300.25C34.626 315.875 32.626 335.875 21.751 349C8.126 365.5 -0.124 385.375 0.001 407C-0.124 465 57.378 512 128.005 512C153.785 512 177.574 505.521 197.605 494.662C204.882 490.717 207.359 481.633 203.83 474.146C203.783 474.049 203.736 473.951 203.691 473.854C199.939 465.84 190.164 462.84 182.353 467C166.47 475.457 147.726 480 128.005 480C101.128 480 76.253 471.625 57.753 456.5C41.126 442.875 32.001 425.25 32.001 406.875C32.001 390.375 39.876 377.375 46.378 369.5C65.503 346.5 69.003 312.75 55.128 285.625C51.878 279.625 50.253 272.875 50.253 266C50.253 240.58 74.747 213.703 112.003 213.604L111.999 274.941C93.404 281.557 80.003 299.141 80.003 320C80.003 346.5 101.503 368 128.005 368C154.505 368 176.007 346.5 176.007 320C176.007 299.137 162.601 281.553 143.999 274.939L144.003 213.521C163.124 213.469 178.285 219.346 191.302 232.938C197.568 239.463 207.945 239.65 214.154 233.07C220.8 226.008 220.023 216.744 214.708 211.123C189.833 184.744 159.417 181.672 144.003 180.328ZM116.255 32H139.755V80.5L128.005 103.25L116.255 80.5V32ZM144.005 320C144.005 328.875 136.88 336 128.005 336S112.005 328.875 112.005 320S119.13 304 128.005 304S144.005 311.125 144.005 320ZM400.015 336H336.011C327.21 336 320.011 343.199 320.011 352C320.011 360.799 327.21 368 336.011 368H400.015C408.814 368 416.015 360.799 416.015 352C416.015 343.199 408.814 336 400.015 336ZM400.015 400.125H336.011C327.21 400.125 320.011 407.324 320.011 416.125C320.011 424.924 327.21 432.125 336.011 432.125H400.015C408.814 432.125 416.015 424.924 416.015 416.125C416.015 407.324 408.814 400.125 400.015 400.125ZM504.642 386.875L474.392 336.25C466.892 315.875 462.767 306.75 472.142 287C477.267 276.125 480.017 264.25 480.017 252.25V221.26C480.017 211.541 473.744 202.48 464.29 200.221C462.607 199.818 460.923 199.625 459.269 199.625C451.517 199.625 444.39 203.873 440.765 210.875L428.765 234C422.765 245.625 416.64 253.75 404.015 256H384.011V93.062C404.24 85.873 418.32 65.707 415.701 42.451C412.937 17.918 390.992 0 366.304 0C345.558 0 327.601 14.383 323.103 34.635C315.611 68.379 305.165 115.453 303.886 121.375C301.511 132 304.761 143.125 312.511 150.875L352.011 182.375V256H332.011C319.261 252.5 313.511 242 308.886 229.125L294.136 188.875C291.386 181.125 284.011 176 275.759 176C270.509 176 265.509 178 261.759 181.75C258.134 185.5 256.009 190.5 256.009 195.625V252.25C256.009 264.375 258.634 276.25 263.884 287.125C273.134 306.75 269.259 315.875 261.759 336.375L231.384 387C206.007 446.125 249.384 512 313.761 512H422.14C486.642 511.875 530.019 446.125 504.642 386.875ZM335.187 128.029C336.556 121.705 346.91 75.059 354.345 41.572C355.595 35.936 360.513 32 366.304 32C375.134 32 383.027 38.295 383.898 46.033C384.88 54.738 379.279 60.783 373.294 62.91C360.535 67.445 352.011 79.521 352.011 93.062V141.445L335.187 128.029ZM470.41 453.949C459.539 470.467 441.921 479.961 422.14 480H313.761C294.04 480 276.501 470.551 265.642 454.074C255.138 438.135 253.138 419.047 260.054 401.414L289.201 352.84C290.244 351.102 291.117 349.271 291.814 347.369L292.496 345.506C300.21 324.467 307.497 304.596 292.705 273.213C290.833 269.34 289.517 265.248 288.765 260.982C295.558 271.389 306.306 282.127 323.54 286.857C326.3 287.615 329.15 288 332.011 288H404.015C405.898 288 407.777 287.834 409.63 287.504C426.962 284.414 438.337 275.438 445.861 266.457C445.152 268.785 444.273 271.07 443.232 273.277C428.48 304.354 435.74 323.988 443.427 344.775L444.361 347.305C445.046 349.166 445.904 350.961 446.921 352.664L475.956 401.254C482.878 418.92 480.894 438.021 470.41 453.949Z"/></svg>
